X:16
T:Reel Chicoutimi
Z:robin.beech@mcgill.ca
S:Laurence Beaudry
R:reel
M:4/4
L:1/8
K:A
f | eccc eccf | eccc B3f | eccc ecaf | ecBc A3 :| 
E | AcBc AEEE | AcBc A3E | AEAB c2f2 | ecBc A3 :|

